icons/repo-delete-24.svg

<svg width="24" height="24" viewBox="0 0 24 24" fill="none" xmlns="http://www.w3.org/2000/svg">
<path d="M4.75 0C3.23122 0 2 1.23122 2 2.75V19.25C2 20.7688 3.23122 22 4.75 22H12.75C13.1642 22 13.5 21.6642 13.5 21.25C13.5 20.8358 13.1642 20.5 12.75 20.5H4.75C4.05964 20.5 3.5 19.9404 3.5 19.25V18C3.5 17.1716 4.17157 16.5 5 16.5H12.75C13.1642 16.5 13.5 16.1642 13.5 15.75C13.5 15.3358 13.1642 15 12.75 15H5C4.45357 15 3.94126 15.1461 3.5 15.4013V2.75C3.5 2.05964 4.05964 1.5 4.75 1.5H18.5V13.75C18.5 14.1642 18.8358 14.5 19.25 14.5C19.6642 14.5 20 14.1642 20 13.75V0.75C20 0.335786 19.6642 0 19.25 0H4.75Z" fill="#1F2328"/>
<path d="M15.2197 16.2197C15.5126 15.9268 15.9874 15.9268 16.2803 16.2197L19 18.9393L21.7197 16.2197C22.0126 15.9268 22.4874 15.9268 22.7803 16.2197C23.0732 16.5126 23.0732 16.9874 22.7803 17.2803L20.0607 20L22.7803 22.7197C23.0732 23.0126 23.0732 23.4874 22.7803 23.7803C22.4874 24.0732 22.0126 24.0732 21.7197 23.7803L19 21.0607L16.2803 23.7803C15.9874 24.0732 15.5126 24.0732 15.2197 23.7803C14.9268 23.4874 14.9268 23.0126 15.2197 22.7197L17.9393 20L15.2197 17.2803C14.9268 16.9874 14.9268 16.5126 15.2197 16.2197Z" fill="#1F2328"/>
</svg>

<svg xmlns="http://www.w3.org/2000/svg" width="24" height="24" viewBox="0 0 24 24"><path d="M4.75 0A2.75 2.75 0 0 0 2 2.75v16.5A2.75 2.75 0 0 0 4.75 22h8a.75.75 0 0 0 0-1.5h-8c-.69 0-1.25-.56-1.25-1.25V18A1.5 1.5 0 0 1 5 16.5h7.75a.75.75 0 0 0 0-1.5H5c-.546 0-1.059.146-1.5.401V2.75c0-.69.56-1.25 1.25-1.25H18.5v12.25a.75.75 0 0 0 1.5 0v-13a.75.75 0 0 0-.75-.75H4.75Z"/><path d="M15.22 16.22a.75.75 0 0 1 1.06 0L19 18.94l2.72-2.72a.75.75 0 1 1 1.06 1.06L20.06 20l2.72 2.72a.75.75 0 1 1-1.06 1.06L19 21.06l-2.72 2.72a.75.75 0 1 1-1.06-1.06L17.94 20l-2.72-2.72a.75.75 0 0 1 0-1.06Z"/></svg>
